Numix/16/status/indicator-keyboard-Hr-2.svg

<?xml version="1.0" encoding="UTF-8" standalone="no"?>
<svg
   xmlns:dc="http://purl.org/dc/elements/1.1/"
   xmlns:cc="http://creativecommons.org/ns#"
   xmlns:rdf="http://www.w3.org/1999/02/22-rdf-syntax-ns#"
   xmlns:svg="http://www.w3.org/2000/svg"
   xmlns="http://www.w3.org/2000/svg"
   xmlns:sodipodi="http://sodipodi.sourceforge.net/DTD/sodipodi-0.dtd"
   xmlns:inkscape="http://www.inkscape.org/namespaces/inkscape"
   viewBox="0 0 16 16"
   id="svg2"
   version="1.1"
   inkscape:version="0.91 r13725"
   sodipodi:docname="indicator-keyboard-Hr-2.svg">
  <metadata
     id="metadata14">
    <rdf:RDF>
      <cc:Work
         rdf:about="">
        <dc:format>image/svg+xml</dc:format>
        <dc:type
           rdf:resource="http://purl.org/dc/dcmitype/StillImage" />
      </cc:Work>
    </rdf:RDF>
  </metadata>
  <defs
     id="defs12" />
  <sodipodi:namedview
     pagecolor="#ffffff"
     bordercolor="#666666"
     borderopacity="1"
     objecttolerance="10"
     gridtolerance="10"
     guidetolerance="10"
     inkscape:pageopacity="0"
     inkscape:pageshadow="2"
     inkscape:window-width="640"
     inkscape:window-height="480"
     id="namedview10"
     showgrid="false"
     inkscape:zoom="14.75"
     inkscape:cx="8"
     inkscape:cy="8"
     inkscape:window-x="65"
     inkscape:window-y="24"
     inkscape:window-maximized="0"
     inkscape:current-layer="svg2" />
  <path
     style="fill:#ececec;fill-opacity:1"
     d="M 1.5996094 0 C 0.71320937 2.9605947e-16 0 0.71320937 0 1.5996094 L 0 14.400391 C 2.9605947e-16 15.286791 0.71320937 16 1.5996094 16 L 14.400391 16 C 15.286791 16 16 15.286791 16 14.400391 L 16 1.5996094 C 16 0.71320937 15.286791 0 14.400391 0 L 1.5996094 0 z M 2.2109375 4.859375 L 2.8222656 4.859375 L 2.8222656 7.5683594 L 6.2070312 7.5683594 L 6.2070312 4.859375 L 6.8183594 4.859375 L 6.8183594 11.095703 L 6.2070312 11.095703 L 6.2070312 8.0996094 L 2.8222656 8.0996094 L 2.8222656 11.095703 L 2.2109375 11.095703 L 2.2109375 4.859375 z M 9.9824219 6.3535156 C 10.174422 6.3535156 10.353484 6.3684375 10.521484 6.3984375 C 10.695484 6.4284375 10.814859 6.4582812 10.880859 6.4882812 L 10.763672 6.9921875 C 10.715672 6.9681875 10.616797 6.9439219 10.466797 6.9199219 C 10.322797 6.8899219 10.132578 6.875 9.8925781 6.875 C 9.6405781 6.875 9.4352969 6.8936875 9.2792969 6.9296875 C 9.1292969 6.9656875 9.0304219 6.9955312 8.9824219 7.0195312 L 8.9824219 11.095703 L 8.3984375 11.095703 L 8.3984375 6.6582031 C 8.5484375 6.5922031 8.7555312 6.5269375 9.0195312 6.4609375 C 9.2835312 6.3889375 9.6044219 6.3535156 9.9824219 6.3535156 z M 12.460938 8.7539062 C 12.854837 8.7539062 13.150709 8.851875 13.349609 9.046875 C 13.548509 9.237975 13.648437 9.5044563 13.648438 9.8476562 C 13.648438 9.9997563 13.621006 10.14475 13.566406 10.28125 C 13.511806 10.41385 13.43735 10.543169 13.34375 10.667969 C 13.25405 10.792769 13.152156 10.912297 13.035156 11.029297 C 12.918156 11.146297 12.798634 11.263859 12.677734 11.380859 C 12.576334 11.478359 12.476406 11.578288 12.378906 11.679688 C 12.285306 11.777188 12.199094 11.877116 12.121094 11.978516 C 12.046994 12.076016 11.988206 12.172031 11.941406 12.269531 C 11.898506 12.363131 11.876953 12.457181 11.876953 12.550781 L 11.876953 12.5625 L 13.789062 12.5625 L 13.789062 12.896484 L 11.455078 12.896484 C 11.455078 12.888684 11.453085 12.874969 11.449219 12.855469 L 11.449219 12.755859 C 11.449219 12.572559 11.482528 12.402094 11.548828 12.246094 C 11.615128 12.086194 11.699381 11.937275 11.800781 11.796875 C 11.906081 11.656475 12.019731 11.525197 12.144531 11.404297 C 12.273231 11.283397 12.396672 11.165834 12.513672 11.052734 C 12.611172 10.959134 12.703263 10.869003 12.789062 10.783203 C 12.878762 10.693503 12.957138 10.603366 13.023438 10.509766 C 13.089737 10.416166 13.142641 10.316237 13.181641 10.210938 C 13.220641 10.105638 13.238281 9.9900344 13.238281 9.8652344 C 13.238281 9.5922344 13.165778 9.39825 13.017578 9.28125 C 12.873278 9.16035 12.689097 9.0996094 12.466797 9.0996094 C 12.341997 9.0996094 12.230312 9.1152844 12.132812 9.1464844 C 12.035313 9.1776844 11.951053 9.2149125 11.876953 9.2578125 C 11.806753 9.2968125 11.746013 9.3379594 11.695312 9.3808594 C 11.644613 9.4237594 11.607384 9.4570688 11.583984 9.4804688 L 11.384766 9.2167969 C 11.408166 9.1894969 11.449312 9.1503094 11.507812 9.0996094 C 11.570212 9.0450094 11.646628 8.9921062 11.736328 8.9414062 C 11.829928 8.8907063 11.935741 8.8476 12.056641 8.8125 C 12.177541 8.7735 12.312738 8.7539063 12.460938 8.7539062 z "
     id="path4" />
</svg>

<svg xmlns="http://www.w3.org/2000/svg" viewBox="0 0 16 16">
 <path d="m 1.6 0 c -0.886 0 -1.6 0.713 -1.6 1.6 l 0 12.801 c 0 0.886 0.713 1.6 1.6 1.6 l 12.801 0 c 0.886 0 1.6 -0.713 1.6 -1.6 l 0 -12.801 c 0 -0.886 -0.713 -1.6 -1.6 -1.6 l -12.801 0 z m 0.611 4.859 l 0.611 0 l 0 2.709 l 3.385 0 l 0 -2.709 l 0.611 0 l 0 6.236 l -0.611 0 l 0 -2.996 l -3.385 0 l 0 2.996 l -0.611 0 l 0 -6.236 z m 7.771 1.494 c 0.192 0 0.371 0.015 0.539 0.045 c 0.174 0.03 0.293 0.06 0.359 0.09 l -0.117 0.504 c -0.048 -0.024 -0.147 -0.048 -0.297 -0.072 c -0.144 -0.03 -0.334 -0.045 -0.574 -0.045 c -0.252 0 -0.457 0.019 -0.613 0.055 c -0.15 0.036 -0.249 0.066 -0.297 0.09 l 0 4.076 l -0.584 0 l 0 -4.437 c 0.15 -0.066 0.357 -0.131 0.621 -0.197 c 0.264 -0.072 0.585 -0.107 0.963 -0.107 z m 2.479 2.4 c 0.394 0 0.69 0.098 0.889 0.293 c 0.199 0.191 0.299 0.458 0.299 0.801 c 0 0.152 -0.027 0.297 -0.082 0.434 c -0.055 0.133 -0.129 0.262 -0.223 0.387 c -0.09 0.125 -0.192 0.244 -0.309 0.361 c -0.117 0.117 -0.237 0.235 -0.357 0.352 c -0.101 0.098 -0.201 0.197 -0.299 0.299 c -0.094 0.098 -0.18 0.197 -0.258 0.299 c -0.074 0.097 -0.133 0.194 -0.18 0.291 c -0.043 0.094 -0.064 0.188 -0.064 0.281 l 0 0.012 l 1.912 0 l 0 0.334 l -2.334 0 c 0 -0.008 -0.002 -0.022 -0.006 -0.041 l 0 -0.1 c 0 -0.183 0.033 -0.354 0.1 -0.51 c 0.066 -0.16 0.151 -0.309 0.252 -0.449 c 0.105 -0.14 0.219 -0.272 0.344 -0.393 c 0.129 -0.121 0.252 -0.238 0.369 -0.352 c 0.098 -0.094 0.19 -0.184 0.275 -0.27 c 0.09 -0.09 0.168 -0.18 0.234 -0.273 c 0.066 -0.094 0.119 -0.194 0.158 -0.299 c 0.039 -0.105 0.057 -0.221 0.057 -0.346 c 0 -0.273 -0.073 -0.467 -0.221 -0.584 c -0.144 -0.121 -0.328 -0.182 -0.551 -0.182 c -0.125 0 -0.236 0.016 -0.334 0.047 c -0.097 0.031 -0.182 0.068 -0.256 0.111 c -0.07 0.039 -0.131 0.08 -0.182 0.123 c -0.051 0.043 -0.088 0.076 -0.111 0.1 l -0.199 -0.264 c 0.023 -0.027 0.065 -0.066 0.123 -0.117 c 0.062 -0.055 0.139 -0.108 0.229 -0.158 c 0.094 -0.051 0.199 -0.094 0.32 -0.129 c 0.121 -0.039 0.256 -0.059 0.404 -0.059 z" style="fill:#ececec;fill-opacity:1"/>
</svg>
